X:2797
T:I'm a Man in Myself like Oliver's Bull
O:england
R:jig
B:Joyce, P. W.; "Old Irish Folk Music and Songs"
H:The Olivers were the local landlords of my native place sixty or seventy
H:years ago.  The name of the tune was quite a common saying, and was
H:applied to a confident, self-helpful person.
L:1/8
M:6/8
K:G
G|FDD c2 A|def geg|fed cAG|FAF GFE|
FDD c2 A|def geg|fed cAG|Add d2::A|
dfa fga|dfa agf|efg efg|eaf gfe|
f3 g3|agf efg|fed cAG|Add d2:|


